!!!OTL: 2159. Das Lied vom Sterben.
!!!ODT: 1799
!!!ARE: Europa, Mitteleuropa, Deutschland
!!!SCT: E2159
!!!TXL: @@DE
!!!YEM: Copyright 1995, estate of Helmut Schaffrath.
**kern	**text
*ICvox	*
*M4/4	*
*met(c)	*
*k[b-e-]	*
*g:	*
=1	=1
!LO:TX:a:t=Langsam und ernst.	!
!LO:TX:a:t=Mel. 1799.	!
{4.dd	Ster-
8cc	-ben
4b-	iſt
4a	ein
=2	=2
4g	ſchwe-
4d	-re
2d}	Buß;
=3	=3
{4.dd	weiß
8cc	wohl,
4b-	daß
4a	ich
=4	=4
4g	ſter-
4d	-ben
2d}	muß,
=5	=5
{4b-	und
4b-	ein
4dd	Rös-
4dd	-lein
=6	=6
4b-	ro-
4b-	-ſen-
2dd}	-roth
=7	=7
{2ee-	pflanʒt
2dd	mein
=8	=8
2cc	Schatʒ
2b-	nach
=9	=9
4a	mei-
4a	-nem
2g}	Tod.
==	==
!!!AGN: geistlich, Moral - Lied, Tod
!!!ONB: ESAC (Essen Associative Code) Database: ERK3
!!!AMT: simple quadruple
!!!AIN: vox
!!!EED: Helmut Schaffrath
!!!EEV: 1.0
!!!GTL: 6. Lieder von den Letzten Dinen: Tod, Begraebniss, Auferstehung, Weltgericht, ewige Seligkeit.
!!!URL-scan: https://rosdok.uni-rostock.de/mcrviewer/recordIdentifier/rosdok_ppn745177999/iview2/phys_0860.iview2?x=188.9681574111819&y=4.966956649441272&scale=0.7014306698522895&rotation=0&layout=singlePageLayout
!!!ENC: Anna Maria Matuszewska
!!!EEV: 2025/14/01
*-	*-
